Sources/FrostedUI/Resources/Icons.xcassets/creditCard16.imageset/credit-card-16.svg

<svg width="16" height="16" viewBox="0 0 16 16" fill="none" xmlns="http://www.w3.org/2000/svg" data-fui-icon="true">
  <path
    d="M13.46 2C14.8628 2 16 3.13724 16 4.54004V11.46C16 12.8628 14.8628 14 13.46 14H2.54004C1.13724 14 0 12.8628 0 11.46V4.54004C0 3.13724 1.13724 2 2.54004 2H13.46ZM1.5 11.46C1.5 12.0343 1.96566 12.5 2.54004 12.5H13.46C14.0343 12.5 14.5 12.0343 14.5 11.46V7H1.5V11.46ZM6.25 9C6.66421 9 7 9.33579 7 9.75C7 10.1642 6.66421 10.5 6.25 10.5H3.75C3.33579 10.5 3 10.1642 3 9.75C3 9.33579 3.33579 9 3.75 9H6.25ZM2.54004 3.5C1.96566 3.5 1.5 3.96566 1.5 4.54004V5.5H14.5V4.54004C14.5 3.96566 14.0343 3.5 13.46 3.5H2.54004Z"
    fill="currentColor"
  />
</svg>

<svg xmlns="http://www.w3.org/2000/svg" width="16" height="16" fill="none" data-fui-icon="true" viewBox="0 0 16 16"><path fill="currentColor" d="M13.46 2A2.54 2.54 0 0 1 16 4.54v6.92A2.54 2.54 0 0 1 13.46 14H2.54A2.54 2.54 0 0 1 0 11.46V4.54A2.54 2.54 0 0 1 2.54 2zM1.5 11.46c0 .574.466 1.04 1.04 1.04h10.92a1.04 1.04 0 0 0 1.04-1.04V7h-13zM6.25 9a.75.75 0 0 1 0 1.5h-2.5a.75.75 0 0 1 0-1.5zM2.54 3.5A1.04 1.04 0 0 0 1.5 4.54v.96h13v-.96a1.04 1.04 0 0 0-1.04-1.04z"/></svg>
